docs/svg/tabler-icons/outline/cash-register.svg

<!--
tags: [payment, money, pay, cashier, register, purchase, checkout, transaction]
category: E-commerse
-->
<svg
  xmlns="http://www.w3.org/2000/svg"
  width="24"
  height="24"
  viewBox="0 0 24 24"
  fill="none"
  stroke="currentColor"
  stroke-width="2"
  stroke-linecap="round"
  stroke-linejoin="round"
>
  <path d="M21 15H18.5C18.1022 15 17.7206 15.158 17.4393 15.4393C17.158 15.7206 17 16.1022 17 16.5C17 16.8978 17.158 17.2794 17.4393 17.5607C17.7206 17.842 18.1022 18 18.5 18H19.5C19.8978 18 20.2794 18.158 20.5607 18.4393C20.842 18.7206 21 19.1022 21 19.5C21 19.8978 20.842 20.2794 20.5607 20.5607C20.2794 20.842 19.8978 21 19.5 21H17"/>
  <path d="M19 21V22M19 14V15"/>
  <path d="M13 21H6C5.46957 21 4.96086 20.7893 4.58579 20.4142C4.21071 20.0391 4 19.5304 4 19V9C4 8.46957 4.21071 7.96086 4.58579 7.58579C4.96086 7.21071 5.46957 7 6 7H8M20 10.12V9C20 8.46957 19.7893 7.96086 19.4142 7.58579C19.0391 7.21071 18.5304 7 18 7H16"/>
  <path d="M16 10V4C16 3.46957 15.7893 2.96086 15.4142 2.58579C15.0391 2.21071 14.5304 2 14 2H10C9.46957 2 8.96086 2.21071 8.58579 2.58579C8.21071 2.96086 8 3.46957 8 4V10M16 10H8M16 10H17M8 10H7"/>
  <path d="M8 14V14.01"/>
  <path d="M8 17.0001V17.0101"/>
  <path d="M12 13.99V14"/>
  <path d="M12 17V17.01"/>
</svg>

<!--
tags: [payment, money, pay, cashier, register, purchase, checkout, transaction]
category: E-commerce
unicode: "fee6"
version: "3.4"
-->
<svg
  xmlns="http://www.w3.org/2000/svg"
  width="24"
  height="24"
  viewBox="0 0 24 24"
  fill="none"
  stroke="currentColor"
  stroke-width="2"
  stroke-linecap="round"
  stroke-linejoin="round"
>
  <path d="M21 15h-2.5c-.398 0 -.779 .158 -1.061 .439c-.281 .281 -.439 .663 -.439 1.061c0 .398 .158 .779 .439 1.061c.281 .281 .663 .439 1.061 .439h1c.398 0 .779 .158 1.061 .439c.281 .281 .439 .663 .439 1.061c0 .398 -.158 .779 -.439 1.061c-.281 .281 -.663 .439 -1.061 .439h-2.5" />
  <path d="M19 21v1m0 -8v1" />
  <path d="M13 21h-7c-.53 0 -1.039 -.211 -1.414 -.586c-.375 -.375 -.586 -.884 -.586 -1.414v-10c0 -.53 .211 -1.039 .586 -1.414c.375 -.375 .884 -.586 1.414 -.586h2m12 3.12v-1.12c0 -.53 -.211 -1.039 -.586 -1.414c-.375 -.375 -.884 -.586 -1.414 -.586h-2" />
  <path d="M16 10v-6c0 -.53 -.211 -1.039 -.586 -1.414c-.375 -.375 -.884 -.586 -1.414 -.586h-4c-.53 0 -1.039 .211 -1.414 .586c-.375 .375 -.586 .884 -.586 1.414v6m8 0h-8m8 0h1m-9 0h-1" />
  <path d="M8 14v.01" />
  <path d="M8 17v.01" />
  <path d="M12 13.99v.01" />
  <path d="M12 17v.01" />
</svg>
